X:1
T:Le feu craintif
T:Que feu craintif
T:Jacquet de  Berchem
T:Source : Le Parangon des Chansons---VIIIième Livre---Lyon---J.Moderne---1541. Editor : André Vierendeels (08/12/14).
C:Jacquet de  Berchem
%%score [ 1 2 3 4 ]
L:1/8
Q:1/4=110
M:2/2
K:C
V:1 treble nm="Superius" snm="S"
V:2 treble nm="Altus" snm="A"
V:3 treble-8 nm="Tenor" snm="T"
V:4 bass nm="Bassus" snm="B"
V:1
 B8 | c4 d4 | e4 z2 c2 | c2 c2 d2 c2 | f6 ed | e4 z2 c2 | B2 B2 A3 G/F/ | G4 z4 | z2 c4 c2 | %9
w: Que|feu crain-|tif m'a|cau- sé grant mar-|ty- * *|re, ne|vient que d'e- * *|stre|en peur|
w: Qui|le plai-|gnant d'o-|ser par- ler re-|ti- * *|re, par|trop a- voir, _ _|_|en hault|
 B2 c2 A4 | G2 c2 c2 B2 | A4 G4 | G8 :| e4 e2 e2 | d2 d2 f2 f2 | e3 d c2 BA | B8 | z2 G2 G2 G2 | %18
w: con- des- cen-|du, en peur con-|des- cen-|du,|Mais si le|plain- dre, a- mour|n'a def- fen- * *|du|peult le plai-|
w: lieu pre- ten-|du, en hault lieu|pre- ten-|du.||||||
 c6 B2 | A2 G2 c2 c2 | B2 AF A4 | G2 B2 c2 A2 | GA BG A2 G2- |"^#" G2 F2 G4 |: B8 | c4 d4 | e8 | %27
w: gnant mon-|strer ce qu'il de-|si- * * *|re, mon- strer ce|qu'il _ _ _ _ de-|* si- re,|O|plain- cte|donc|
w: |||||||||
 z2 c2 c2 c2 | d2 e2 f3 e/d/ | e4 z2 c2 | B4 A4 | G4 z4 | z2 c2 c2 c2 | B2 c2 A4 | G2 c2 c2 B2 | %35
w: fais que soit|soit- en- ten- * *|du, las,|qu'on con-|gneust|mon vou- loir|sans le di-|re, mon vou- loir|
w: ||||||||
 A2 A2 G4 | G8 :| %37
w: sans le di-|re.|
w: ||
V:2
 G8 | E2 C2 G4- | G4 z2 E2 | E2 E2 F3 E | D2 C2 D4 | z2 G2 G4- | G2 G2 F4 | E3 F G2 A2- | %8
w: n'a|def- fen- du,|_ peult|le plai- gnant, peult|le * plai-|gnant mon-|_ strer ce|qu'l de- si- re,|
w: Qui|le plai- gnant|_ d'o-|ser par- ler re-|ti- * re,|par trop|_ a- voir|en hault lieu pre-|
 A2 G4 F2 | G2 F4 F2 | E2 F2 D2 E2- | ED/C/ C4 B,2 | C8 :| G4 G2 G2 | G2 G2 A2 A2 | G4 A4 | G4 z4 | %17
w: * O plain-|cte donc fais|qui- soit en- *||ten-|du, las, quon|con- gneust mon vou-|loir sans|le|
w: * ten- *|du, en hault|lieu pre- * ten-||du.|||||
 z2 D2 D2 D2 | E3 F G4 | z2 E2 E2 E2 | G6 F2 | E2 D2 E2 F2 | D4 E2 C2 | D8 |: G8 | E2 C2 G4- | %26
w: di- re, mon|vou- _ _|loir sans le|di- re.|Que feu crain- tif|m'a * *|cau-|sé|grant mar- ty-|
w: |||||||||
 G4 z2 E2 | E2 E2 F3 E | D2 C2 D4 | z2 G2 G4- | G2 G2 F2 F2 | E3 F G2 A2- | A2 G4 F2 | %33
w: _ re,|ne vient que *|d'e- * str'en|peur con|_ des- cen- du,|en peur con- des-|_ cen- *|
w: |||||||
 G2 z F F2 F2 | E2 F2 D2 E2- | ED/C/ C4 B,2 | C8 :| %37
w: du, Mais si de|plain- dre'a- mour *||n'a|
w: ||||
V:3
 d8 | c2 c4 B2 | c2 G2 G2 G2 | c3 B AG A2- | AG c4 B2 | c4 z2 e2 | e2 e2 c4 | c2 e4 e2 | d2 e2 c4 | %9
w: def-|fen- du, peult|le plai- gnant mon-|strer * * * *|* * ce *|qu'il de-|si- re, peult|le plai- gnant|mon- strer ce|
w: Qui|le plai- gnant|d'o- ser par- ler|re- * * * *|* * ti- *|re, par|trop a- voir|en hault lieu|pre- ten- du,|
 z4 c4- | c4 g4 | e2 f2 d4 | e8 :| c4 c2 c2 | B2 B2 c2 c2 | e4 f4 | d2 d2 d2 d2 | g6 f2 | %18
w: qu'l|_ de-|si- re, O|plain-|cte donc fais|qui- soit en- ten-|du, las,|qu'on con- gneust mon|vou- loir|
w: en|_ hault|lieu pre- ten-|du.||||||
 e2 d2 e2 g2- | gf ed c4 | z2 d2 d2 d2 | g2 G2 A2 c2 | c2 B2 cB AG | A4 G4 |: d8 | c2 c4 B2 | %26
w: sans le di- re,|* * mon * vou-|loir sans le|di- re. Que feu|crain- tif m'a * * *|* cau-|sé|grant mar- ty-|
w: ||||||||
 c2 G2 G2 G2 | c3 B AG A2- | AB c4 B2 | c4 z2 e2 | e2 e2 c4- | c2 e2 e2 e2 | d2 e2 c4 | d2 z2 c4- | %34
w: re, ne vient que|d'e- * * * *||str'en peur|con- des- cen-|_ du, en peur|con- des- cen-|du, Mais|
w: ||||||||
 c4 g3 g | e2 f2 d4 | e8 :| %37
w: _ si de|plain- dre'a- mour|n'a|
w: |||
V:4
 G,8 | A,4 G,4 | C,4 z2 C,2 | C,2 C,2 F,4- | F,2 E,2 D,4 | C,4 z2 C,2 | E,2 E,2 F,3 E, | %7
w: def-|fen- du,|peult le|plai- gnant mon-|_ strer ce|qu'il de-|si- re, mon strer|
w: Qui|le plai-|gnant d'o-|ser par- ler|_ re- ti-|re, par|trop a- voir en|
 C,2 C4 C2 | B,2 C2 A,4 | G,2 A,2 F,4 | z2 F,2 G,2 G,2 | A,2 F,2 G,4 | C,8 :| C,4 C,2 C,2 | %14
w: ce qu'il de-|si- * *|* * re,|O plain- cte|donc * fait|qui-|soit en- ten|
w: hault lieu pre-|ten- * *|* * du,|en hault lieu|pre- * ten-|du.||
 G,2 G,2 F,2 F,2 | C,4 F,4 | G,4 z2 G,2 | G,2 G,2 C4- | C2 B,2 A,2 G,2 | C3 B, A,4 | G,4 z2 D,2 | %21
w: du, las, qu'on con|gneust mon|vou- loir|sans le di-|_ re, mon vou-|loir sans le|di- re.|
w: |||||||
 E,2 G,2 G,2 F,2 | G,4 C,2 E,2 | D,4 G,4 |: G,8 | A,4 G,4 | C,4 z2 C,2 | C,2 C,2 F,4- | %28
w: |||||||
w: |||||||
 F,2 E,2 D,4 | C,4 z2 C,2 | E,2 E,2 F,3 E, | C,2 C2 C2 C2 | B,2 C2 A,4 | G,2 A,2 F,4 | %34
w: ||||||
w: ||||||
 z2 F,2 G,2 G,2 | A,2 F,2 G,4 | C,8 :| %37
w: |||
w: |||

